icon-themes/sifr_svg/cmd/lc_dbqueryrename.svg

<svg viewBox="0 0 24 24" xmlns="http://www.w3.org/2000/svg"><path d="m2.2167969 1.9882812c-.0690319-.0083162-.1412605-.0049905-.2167969.0117188h-.5878906-.4121094v1c0 .224022.12983.528449.3125.71875l.3710938.28125 2.3164062 2-2.3164062 2-.3710938.28125c-.18267.190288-.2899208.4628522-.3125.71875v1h.4121094.5878906c.30945 0 .55232-.0903.75-.28125l3.25-2.8828125v-1.6152344c-.725151-.618354-2.233922-2.1698591-3.25-2.9394531-.14826-.1432125-.3261076-.2680201-.5332031-.2929688zm5.7832031 2.0117188v9h14v-9zm2 2h4v2h-4zm6 0h4v2h-4zm-6 4h4v2h-4zm6 0h4v2h-4zm-5 4c-.554 0-1 .446-1 1v7c0 .554.446 1 1 1h11c.554 0 1-.446 1-1v-7c0-.554-.446-1-1-1zm6 1h1v2h2c1.10457 0 2 1.119288 2 2.5s-.89543 2.5-2 2.5h-2-1zm-5 2h3c.552285 0 1 .447715 1 1v4h-.5-3c-.828427 0-1.5-.671573-1.5-1.5s.671573-1.5 1.5-1.5h2.5v-1h-3zm6 1v3h2c.552285 0 1-.671573 1-1.5s-.447715-1.5-1-1.5zm-5.5 2c-.276142 0-.5.223858-.5.5s.223858.5.5.5h2.5v-1z" fill="#555753"/></svg>

<svg xmlns="http://www.w3.org/2000/svg" viewBox="0 0 24 24">
  <path
     style="fill:#555753"
     d="M 2.2167969 1.9882812 C 2.147765 1.979965 2.0755364 1.9832907 2 2 L 1.4121094 2 L 1 2 L 1 3 C 1 3.224022 1.12983 3.528449 1.3125 3.71875 L 1.6835938 4 L 4 6 L 1.6835938 8 L 1.3125 8.28125 C 1.12983 8.471538 1.0225792 8.7441022 1 9 L 1 10 L 1.4121094 10 L 2 10 C 2.30945 10 2.55232 9.9097 2.75 9.71875 L 6 6.8359375 L 6 5.2207031 C 5.274849 4.6023491 3.766078 3.050844 2.75 2.28125 C 2.60174 2.1380375 2.4238924 2.0132299 2.2167969 1.9882812 z M 8 4 L 8 13 L 22 13 L 22 4 L 8 4 z M 10 6 L 14 6 L 14 8 L 10 8 L 10 6 z M 16 6 L 20 6 L 20 8 L 16 8 L 16 6 z M 10 10 L 14 10 L 14 12 L 10 12 L 10 10 z M 16 10 L 20 10 L 20 12 L 16 12 L 16 10 z M 11 14 C 10.446 14 10 14.446 10 15 L 10 22 C 10 22.554 10.446 23 11 23 L 22 23 C 22.554 23 23 22.554 23 22 L 23 15 C 23 14.446 22.554 14 22 14 L 11 14 z M 17 15 L 18 15 L 18 17 L 20 17 C 21.10457 17 22 18.119288 22 19.5 C 22 20.880712 21.10457 22 20 22 L 18 22 L 17 22 L 17 15 z M 12 17 L 15 17 C 15.552285 17 16 17.447715 16 18 L 16 22 L 15.5 22 L 12.5 22 C 11.671573 22 11 21.328427 11 20.5 C 11 19.671573 11.671573 19 12.5 19 L 15 19 L 15 18 L 12 18 L 12 17 z M 18 18 L 18 21 L 20 21 C 20.552285 21 21 20.328427 21 19.5 C 21 18.671573 20.552285 18 20 18 L 18 18 z M 12.5 20 C 12.223858 20 12 20.223858 12 20.5 C 12 20.776142 12.223858 21 12.5 21 L 15 21 L 15 20 L 12.5 20 z "
     />
</svg>
